X: 3
T: Johnny Doherty's
R: reel
M: 4/4
L: 1/8
K: Dmaj
F2FE FGAG|Ad{e}dc d2ea|fded cABd|=cAGE D/D/D DE|
F/F/F {G}FE FGAG|Ad{e}dc d2eg|fded cABd|=cAGE FDDg||
{fg}f2ed cAAg|fdec dfag|{fg}f2ed cABd|=cAGE D/D/D Dg|
{fg}f2ed cAAg|fdec dfeg|{fg}f2ed cABd|=cAGE FDDE||


Tune 201	Setting 201

